!!!!SEGMENT: Ver3021-Afflicti_spiriti_mei.krn
!!!id: Ver3021
!!!AGN: Madrigal
!!!SCT: Slim (1972)
!!!voices: 4
!!!COM: Philippe Verdelot
!!!OTL: Afflicti spiriti mei
**kern	**kern	**kern	**kern
*part4	*part3	*part2	*part1
*staff4	*staff3	*staff2	*staff1
*I"Bassus	*I"Tenor	*I"Altus	*I"Superius
*I'B	*I'T	*I'A	*I'S
*clefF4	*clefGv2	*clefGv2	*clefG2
*k[]	*k[]	*k[]	*k[]
*C:	*C:	*C:	*C:
*M2/1	*M2/1	*M2/1	*M2/1
*met(C)	*met(C)	*met(C)	*met(C)
=1	=1	=1	=1
1D	1d	1A	1r
[1GG	2.B	1G	1d
.	4A	.	.
=2	=2	=2	=2
2GG]	2.G	1D	2B
2GG	.	.	2d
.	4F	.	.
2AA	2E	1A	2d
2AA	2E	.	2c
=3	=3	=3	=3
1D	1F	2.A	4d
.	.	.	4e
.	.	.	4f
.	.	4B	4d
1C	1G	1c	1e
=4	=4	=4	=4
2r	2r	2r	2r
2C	2c	2e	2g
2C	2c	2e	2g
2C	2c	2e	2g
=5	=5	=5	=5
2C	2e	2c	2g
2C	2e	2c	2g
1F	1f	1c	1a
=6	=6	=6	=6
1C	1e	1c	1g
2C	2c	2G	2e
2FF	2c	2A	2f
=7	=7	=7	=7
1GG	1B	1G	1d
1AA	1A	1E	1c
=8	=8	=8	=8
2r	2r	2r	2r
2AA	2A	2E	2c
2GG	2B	2.G	2d
2GG	2B	.	2d
.	.	4F	.
=9	=9	=9	=9
2AA	2A	2E	2c
2D	2A	2F	2d
1GG	2.G	1D	1B
.	4F	.	.
=10	=10	=10	=10
2AA	2E	2A	2c
2BB	2D	2G	1d
1AA	1E	1A	.
.	.	.	2c#i
=11	=11	=11	=11
2A	2D	2F	2d
2A	2D	2F	2d
2r	2r	2r	2r
2D	2A	2d	2f
=12	=12	=12	=12
2AA	2A	2c	2e
2D	2F	2A	2d
2C	2G	2c	2e
2AA	2A	2c	2f
=13	=13	=13	=13
0GG	4B	2d	4g
.	4c	.	4a
.	4d	2G	4b
.	4c	.	4a
.	4B	2d	4g
.	4A	.	4f
.	4G	4c	4e
.	4F	4B	4d
=14	=14	=14	=14
2AA	2E	2A	2c
2FF	2A	1c	2f
2C	2G	.	2e
2D	2F	2B	[2d
=15	=15	=15	=15
1AA	1E	1A	2d]
.	.	.	2c#i
[1D	[1D	[1A	[1d
=16	=16	=16	=16
1D;]	1D;]	1A;]	1d;]
[1D	[1f	[1d	[1a
=17	=17	=17	=17
1D]	1f]	1d]	1a]
1F	1f	1c	1a
=18	=18	=18	=18
2G	2d	2B	2g
2D	2d	2A	2f
2E	2B	2A	2g
2E	2c	2G	2g
=19	=19	=19	=19
1D	1d	1A	1f#X
2C	2e	2c	2g
2D	[2d	[2A	2f#i
=20	=20	=20	=20
1E	2d]	2A]	1g
.	2c#i	2G	.
1D	1d	1A	1f#X
=21	=21	=21	=21
2r	2r	2r	2r
2D	2d	2A	2f#i
2G	2d	2B	2g
2C	2e	2c	2g
=22	=22	=22	=22
2D	2d	2A	2f
2E	2B	2G	2g
2AA	2c	2A	2e
2D	2d	2A	2f
=23	=23	=23	=23
2GG	2B	2G	2d
2AA	2.A	1E	2c
1BB	.	.	1d
.	8G#iL	.	.
.	8F#iJ	.	.
.	2G#i	2D	.
=24	=24	=24	=24
0AA	1A	1E	1c
.	2r	2r	2r
.	2A	2e	2cc
=25	=25	=25	=25
0r	2d	2f	2b
.	2c	2e	2a
.	2d	2f	2a
.	2B	2d	2g#i
=26	=26	=26	=26
1r	2A	2e	2a
.	2A	2e	2a
1D	2r	2r	2r
.	2A	2d	2f
=27	=27	=27	=27
2.E	2G	2B	2.g
.	4E	2B	.
4D	4F	.	4f
2C	4G	4c	2e
.	2A	4C	.
2BB	.	2D	2d
.	4G#i	.	.
=28	=28	=28	=28
2AA	2A	2E	2c
2AA	2A	2E	2c
2r	2r	2r	2r
2AA	2c	2A	2e
=29	=29	=29	=29
2D	2d	2A	2f
2F	2d	2A	2f
2E	2e	2B	2g
2E	2e	2B	2g
=30	=30	=30	=30
1D	1f	1d	1a
2D	2d	2A	2f
[2D	[2f	[2A	[2d
=31	=31	=31	=31
2D]	4f]	2A]	2d]
.	4e	.	.
2D	1d	2A	2f
1AA	.	1A	1e
.	2c#i	.	.
=32	=32	=32	=32
1D	1d	1A	1d
1C	2r	1c	2r
.	2G	.	2e
=33	=33	=33	=33
2C	2c	2G	2e
2C	2c	2G	2e
2GG	2.B	2G	2.d
2GG	.	2G	.
.	4A	.	4c
=34	=34	=34	=34
2GG	2.G	2D	2B
2GG	.	2D	2d
.	4F	.	.
2AA	2E	2A	2d
2AA	2E	2A	2c
=35	=35	=35	=35
1D	1F	2.A	4d
.	.	.	4e
.	.	.	4f
.	.	4B	4d
1C	1G	1c	1e
=36	=36	=36	=36
2r	2r	2r	2r
2C	2c	2e	2g
2C	2c	2e	2g
2C	2c	2e	2g
=37	=37	=37	=37
2C	2e	2c	2g
2C	2e	2c	2g
1F	1f	1c	1a
=38	=38	=38	=38
1C	1e	1c	1g
2C	2c	2G	2e
2FF	2c	2A	2f
=39	=39	=39	=39
1GG	1B	1G	1d
1AA	1A	1E	1c
=40	=40	=40	=40
2r	2r	2r	2r
2AA	2A	2E	2c
2GG	2B	2.G	2d
2GG	2B	.	2d
.	.	4F	.
=41	=41	=41	=41
2AA	2A	2E	2c
2D	2A	2F	2d
1GG	2.G	1D	1B
.	4F	.	.
=42	=42	=42	=42
2AA	2E	2A	2c
2BB	2D	2G	1d
1AA	1E	1A	.
.	.	.	2c#i
=43	=43	=43	=43
2A	2D	2F	2d
2A	2D	2F	2d
2r	2r	2r	2r
2D	2A	2d	2f
=44	=44	=44	=44
2AA	2A	2c	2e
2D	2F	2A	2d
2C	2G	2c	2e
2AA	2A	2c	2f
=45	=45	=45	=45
0GG	4B	2d	4g
.	4c	.	4a
.	4d	2G	4b
.	4c	.	4a
.	4B	2d	4g
.	4A	.	4f
.	4G	4c	4e
.	4F	4B	4d
=46	=46	=46	=46
2AA	2E	2A	2c
2FF	2A	1c	2f
2C	2G	.	2e
2D	2F	2B	[2d
=47	=47	=47	=47
1AA	1E	2.A	2d]
.	.	.	2c#i
.	.	4G	.
1A	[1D	2.F	[1dl
.	.	4E	.
=48	=48	=48	=48
2r	1D]	1F	0d_
2A	.	.	.
2.B	1r	[1G	.
4A	.	.	.
=49	=49	=49	=49
2G	2r	2G]	0d_
2F	2A	2D	.
2.G	2.B	1G	.
4F	4A	.	.
=50	=50	=50	=50
2G	2G	2r	0d_
2D	2F	2A	.
2r	2.G	2.B	.
2GG	.	.	.
.	4F	4A	.
=51	=51	=51	=51
2GG	2G	2G	0d_
2D	2A	2F	.
1GG	[1B	2.G	.
.	.	4F	.
=52	=52	=52	=52
1GG	0B_	2G	0d_
.	.	2D	.
[1GG	.	[1G	.
=53	=53	=53	=53
1GG]	1B]	1G]	0d_
[1Dl	[1Al	[1Fl	.
=54	=54	=54	=54
00D]	00A]	00F]	00d]
==	==	==	==
*-	*-	*-	*-
!!!system-decoration: [*]
!!!RDF**kern: i = editorial accidental
!!!RDF**kern: l = terminal long
!!!ENC: Benjamin Ory
!!!END: 2021/2/15
!!!EED: Benjamin Ory
!!!EEV: 2021/04/29
!!!YEC: Copyright 2021 Benjamin Ory, All Rights Reserved
!!!ONB: Translated from MusicXML on 2021/04/29
